assets/img/icons/ui/error2.svg

<?xml version="1.0" encoding="utf-8"?>
<!-- Generated by IcoMoon.io -->
<!DOCTYPE svg PUBLIC "-//W3C//DTD SVG 1.1//EN" "http://www.w3.org/Graphics/SVG/1.1/DTD/svg11.dtd">
<svg version="1.1" xmlns="http://www.w3.org/2000/svg" xmlns:xlink="http://www.w3.org/1999/xlink" width="32" height="32" viewBox="0 0 32 32">
<path fill="rgb(0, 0, 0)" d="M21.797 2h-11.598l-8.199 8.201v11.598l8.199 8.201h11.598l8.203-8.201v-11.598l-8.203-8.201zM18 26h-4v-4h4v4zM18 18h-4v-10h4v10z"></path>
</svg>

<svg xmlns="http://www.w3.org/2000/svg" width="32" height="32" viewBox="0 0 32 32"><path d="M21.797 2H10.199L2 10.201v11.598L10.199 30h11.598L30 21.799V10.201L21.797 2zM18 26h-4v-4h4v4zm0-8h-4V8h4v10z"/></svg>
